icons/ticket-percent.svg

<svg xmlns="http://www.w3.org/2000/svg" width="24" height="24" viewBox="0 0 24 24">
  <path d="M20,4 C21.5976809,4 22.9036609,5.24891996 22.9949073,6.82372721 L23,7 L23,10 L22,10 C20.8954305,10 20,10.8954305 20,12 C20,13.0543618 20.8158778,13.9181651 21.8507377,13.9945143 L22,14 L23,14 L23,17 C23,18.5976809 21.75108,19.9036609 20.1762728,19.9949073 L20,20 L4,20 C2.40231912,20 1.09633912,18.75108 1.00509269,17.1762728 L1,17 L1,14 L2,14 C3.1045695,14 4,13.1045695 4,12 C4,10.9456382 3.18412221,10.0818349 2.14926234,10.0054857 L2,10 L1,10 L1,7 C1,5.40231912 2.24891996,4.09633912 3.82372721,4.00509269 L4,4 L20,4 Z M15.7071068,14.2928932 C15.3165825,13.9023689 14.6834175,13.9023689 14.2928932,14.2928932 C13.9023689,14.6834175 13.9023689,15.3165825 14.2928932,15.7071068 C14.6834175,16.0976311 15.3165825,16.0976311 15.7071068,15.7071068 C16.0976311,15.3165825 16.0976311,14.6834175 15.7071068,14.2928932 Z M15.7071068,8.29289322 C15.3165825,7.90236893 14.6834175,7.90236893 14.2928932,8.29289322 L14.2928932,8.29289322 L8.29289322,14.2928932 L8.20970461,14.3871006 C7.90467972,14.7793918 7.93240926,15.3466228 8.29289322,15.7071068 C8.68341751,16.0976311 9.31658249,16.0976311 9.70710678,15.7071068 L9.70710678,15.7071068 L15.7071068,9.70710678 L15.7902954,9.61289944 C16.0953203,9.22060824 16.0675907,8.65337718 15.7071068,8.29289322 Z M9.70710678,8.29289322 C9.31658249,7.90236893 8.68341751,7.90236893 8.29289322,8.29289322 C7.90236893,8.68341751 7.90236893,9.31658249 8.29289322,9.70710678 C8.68341751,10.0976311 9.31658249,10.0976311 9.70710678,9.70710678 C10.0976311,9.31658249 10.0976311,8.68341751 9.70710678,8.29289322 Z"/>
</svg>

<svg xmlns="http://www.w3.org/2000/svg" viewBox="0 0 24 24">
  <path d="M20 4a3 3 0 0 1 3 2.82V10h-1a2 2 0 0 0-.15 4H23v3a3 3 0 0 1-2.82 3H4a3 3 0 0 1-3-2.82V14h1a2 2 0 0 0 .15-4H1V7a3 3 0 0 1 2.82-3H20zm-4.3 10.3a1 1 0 1 0-1.4 1.4 1 1 0 0 0 1.4-1.4zm0-6a1 1 0 0 0-1.4 0l-6 6-.09.09a1 1 0 0 0 1.5 1.32l6-6 .08-.1a1 1 0 0 0-.08-1.32zm-6 0a1 1 0 1 0-1.4 1.4 1 1 0 0 0 1.4-1.4z"/>
</svg>
